build/img/icon/vk.svg

<svg width="46" height="46" viewBox="0 0 46 46" fill="none" xmlns="http://www.w3.org/2000/svg">
<circle cx="23" cy="23" r="23" fill="#4A76A8"/>
<path d="M35.4148 29.663C35.384 29.5966 35.3553 29.5416 35.3286 29.4975C34.8874 28.7029 34.0443 27.7275 32.7998 26.5712L32.7735 26.5447L32.7603 26.5317L32.747 26.5184H32.7336C32.1688 25.98 31.8111 25.6179 31.6613 25.4326C31.3873 25.0795 31.3259 24.7221 31.4757 24.3599C31.5815 24.0863 31.979 23.5085 32.6673 22.6257C33.0293 22.1578 33.3161 21.7829 33.5278 21.5003C35.0549 19.4701 35.717 18.1727 35.5139 17.6078L35.435 17.4757C35.382 17.3963 35.2452 17.3235 35.0248 17.2572C34.8039 17.1911 34.5215 17.1801 34.1772 17.2242L30.3641 17.2505C30.3024 17.2287 30.2141 17.2307 30.0992 17.2572C29.9845 17.2838 29.927 17.2971 29.927 17.2971L29.8607 17.3302L29.808 17.3701C29.7639 17.3964 29.7153 17.4427 29.6623 17.5089C29.6096 17.5749 29.5655 17.6524 29.5302 17.7406C29.1151 18.8087 28.6431 19.8017 28.1134 20.7196C27.7868 21.2669 27.4868 21.7413 27.2129 22.1429C26.9393 22.5445 26.7098 22.8403 26.5246 23.0299C26.3391 23.2197 26.1717 23.3718 26.0213 23.4866C25.8712 23.6015 25.7566 23.6501 25.6773 23.6323C25.5978 23.6146 25.5229 23.597 25.452 23.5793C25.3285 23.4998 25.2291 23.3917 25.1543 23.2549C25.079 23.1181 25.0284 22.946 25.0019 22.7385C24.9756 22.531 24.96 22.3524 24.9555 22.2023C24.9514 22.0524 24.9533 21.8403 24.9623 21.5667C24.9714 21.293 24.9756 21.1077 24.9756 21.0106C24.9756 20.6752 24.9821 20.3111 24.9952 19.9183C25.0086 19.5255 25.0194 19.2143 25.0284 18.985C25.0374 18.7555 25.0416 18.5127 25.0416 18.2567C25.0416 18.0007 25.026 17.8 24.9952 17.6543C24.9648 17.5088 24.9181 17.3675 24.8566 17.2306C24.7947 17.0938 24.7041 16.9879 24.5851 16.9128C24.466 16.8378 24.3179 16.7782 24.1416 16.734C23.6738 16.6281 23.078 16.5708 22.3541 16.5619C20.7124 16.5443 19.6575 16.6503 19.1897 16.8798C19.0043 16.9768 18.8366 17.1093 18.6866 17.2769C18.5277 17.4711 18.5055 17.5772 18.6203 17.5946C19.1499 17.6739 19.5249 17.8637 19.7456 18.1638L19.8251 18.3229C19.887 18.4376 19.9488 18.6407 20.0106 18.9319C20.0723 19.2232 20.1122 19.5453 20.1297 19.8982C20.1737 20.5427 20.1737 21.0943 20.1297 21.5533C20.0855 22.0124 20.0438 22.3698 20.0039 22.6257C19.9641 22.8817 19.9045 23.0892 19.8251 23.248C19.7456 23.4069 19.6927 23.504 19.6662 23.5392C19.6397 23.5745 19.6176 23.5967 19.6001 23.6054C19.4854 23.6494 19.366 23.6718 19.2426 23.6718C19.1189 23.6718 18.9689 23.6099 18.7924 23.4863C18.616 23.3626 18.4328 23.1928 18.243 22.9765C18.0532 22.7602 17.8391 22.4579 17.6007 22.0695C17.3625 21.6812 17.1153 21.2222 16.8594 20.6926L16.6476 20.3086C16.5152 20.0615 16.3343 19.7017 16.1048 19.2296C15.8752 18.7573 15.6722 18.3004 15.4957 17.8591C15.4252 17.6737 15.3192 17.5326 15.178 17.4355L15.1118 17.3957C15.0677 17.3604 14.997 17.323 14.9 17.2831C14.8028 17.2433 14.7014 17.2147 14.5954 17.1971L10.9676 17.2235C10.5969 17.2235 10.3454 17.3074 10.213 17.4752L10.16 17.5545C10.1335 17.5987 10.1201 17.6693 10.1201 17.7665C10.1201 17.8636 10.1466 17.9827 10.1996 18.1239C10.7292 19.3685 11.3051 20.5689 11.9274 21.7252C12.5496 22.8815 13.0903 23.8129 13.5492 24.5186C14.0081 25.2249 14.476 25.8914 14.9526 26.5179C15.4293 27.1446 15.7449 27.5463 15.8992 27.7227C16.0538 27.8995 16.1752 28.0317 16.2635 28.1199L16.5945 28.4376C16.8063 28.6495 17.1174 28.9033 17.5279 29.1989C17.9384 29.4947 18.3929 29.786 18.8916 30.0731C19.3904 30.3597 19.9707 30.5936 20.6328 30.7745C21.2948 30.9556 21.9391 31.0283 22.5658 30.9932H24.0885C24.3973 30.9665 24.6312 30.8694 24.7903 30.7018L24.8429 30.6355C24.8784 30.5828 24.9115 30.501 24.9421 30.3908C24.9731 30.2805 24.9885 30.1589 24.9885 30.0267C24.9795 29.6473 25.0084 29.3053 25.0744 29.0008C25.1404 28.6964 25.2156 28.4669 25.2997 28.3123C25.3838 28.1579 25.4787 28.0276 25.5843 27.9219C25.6901 27.816 25.7655 27.7519 25.8097 27.7298C25.8537 27.7076 25.8888 27.6926 25.9153 27.6835C26.1271 27.6129 26.3764 27.6813 26.6636 27.8889C26.9505 28.0963 27.2196 28.3525 27.4713 28.6569C27.7229 28.9615 28.0252 29.3034 28.3782 29.6828C28.7314 30.0624 29.0402 30.3446 29.3049 30.5303L29.5696 30.6891C29.7464 30.7952 29.9759 30.8923 30.2584 30.9805C30.5404 31.0687 30.7875 31.0908 30.9997 31.0467L34.389 30.9938C34.7242 30.9938 34.9851 30.9383 35.1701 30.8282C35.3555 30.7178 35.4657 30.5963 35.5012 30.4641C35.5366 30.3317 35.5385 30.1816 35.5079 30.0137C35.4765 29.8462 35.4456 29.7292 35.4148 29.663Z" fill="white"/>
</svg>

<svg width="46" height="46" fill="none" xmlns="http://www.w3.org/2000/svg"><circle cx="23" cy="23" r="23" fill="#4A76A8"/><path d="M35.415 29.663a1.73 1.73 0 00-.086-.166c-.442-.794-1.285-1.77-2.53-2.926l-.026-.026-.013-.013-.013-.014h-.013c-.565-.538-.923-.9-1.073-1.085-.274-.354-.335-.71-.185-1.073.105-.274.503-.851 1.191-1.734.362-.468.65-.843.86-1.126 1.528-2.03 2.19-3.327 1.987-3.892l-.079-.132c-.053-.08-.19-.152-.41-.219-.221-.066-.503-.077-.848-.033l-3.813.026a.496.496 0 00-.265.007l-.172.04-.066.033-.053.04a.588.588 0 00-.146.139.912.912 0 00-.132.232 21.614 21.614 0 01-1.417 2.979 28.218 28.218 0 01-.9 1.423c-.274.401-.503.697-.688.887a4.79 4.79 0 01-.504.457c-.15.115-.264.163-.344.145a9.061 9.061 0 01-.225-.053.88.88 0 01-.298-.324 1.45 1.45 0 01-.152-.517 5.722 5.722 0 01-.046-.536c-.005-.15-.003-.362.006-.635.01-.274.014-.46.014-.556 0-.336.006-.7.02-1.093.013-.392.023-.704.032-.933.01-.23.014-.472.014-.728s-.016-.457-.047-.603a2.061 2.061 0 00-.138-.423.713.713 0 00-.272-.318 1.529 1.529 0 00-.443-.179c-.468-.106-1.064-.163-1.788-.172-1.642-.018-2.697.088-3.164.318-.186.097-.353.23-.503.397-.16.194-.181.3-.067.318.53.079.905.269 1.126.569l.08.159c.061.115.123.318.185.609.061.291.101.613.119.966a10.32 10.32 0 010 1.655c-.044.46-.086.817-.126 1.073-.04.256-.1.463-.179.622a2.62 2.62 0 01-.159.291.228.228 0 01-.066.066.991.991 0 01-.357.067c-.124 0-.274-.062-.45-.186a3.18 3.18 0 01-.55-.51 6.808 6.808 0 01-.642-.906 15.805 15.805 0 01-.742-1.377l-.211-.384a33.058 33.058 0 01-.543-1.08 20.93 20.93 0 01-.61-1.37.872.872 0 00-.317-.424l-.066-.04a.906.906 0 00-.212-.112 1.41 1.41 0 00-.305-.086l-3.627.027c-.371 0-.623.083-.755.251l-.053.08a.428.428 0 00-.04.212c0 .097.027.216.08.357a43.693 43.693 0 001.727 3.601c.623 1.156 1.163 2.088 1.622 2.794.46.706.927 1.372 1.404 1.999.476.627.792 1.028.946 1.205.155.177.276.309.365.397l.33.318c.212.212.523.465.934.76.41.297.865.588 1.364.875a7.4 7.4 0 001.74.701 6.019 6.019 0 001.934.22h1.523c.308-.027.542-.125.701-.292l.053-.067a.875.875 0 00.1-.244c.03-.11.045-.232.045-.364-.008-.38.02-.722.086-1.026.066-.305.142-.534.226-.689a1.695 1.695 0 01.51-.582.875.875 0 01.105-.047c.212-.07.461-.002.749.206.287.207.556.463.807.768.252.305.554.646.907 1.026s.662.662.927.847l.265.16c.176.105.406.202.688.29.282.089.53.11.742.067l3.389-.053c.335 0 .596-.056.781-.166.185-.11.296-.232.331-.364.036-.132.038-.282.007-.45a1.661 1.661 0 00-.093-.351z" fill="#fff"/></svg>
